X:11
T:Enoch Kirk
C:Harry Stevenson Jr
B:William Livingstone Volume 1
H:
O:Kevin Fraser
Z:Kevin Fraser
Q:1/4=90
K:HP
M:6/8
L:1/8
R:March
U: R = ///
U: r = //
U: V = !accent!
V:M gstem=up stem=down name="Melody" sname="Melody" 
V:H gstem=up stem=down name="Harmony" sname="Harmony"
V:C gstem=up stem=down name="C-Harmony" sname="C-Harmony"
V:S gstem=up stem=down clef=none dyn=up name="Snare" sname="Snare"
V:B gstem=up stem=down clef=none dyn=up name="Bass" sname="Bass"
V:T gstem=up stem=down clef=none dyn=up name="Tenor" sname="Tenor"
V:BB gstem=up stem=down name="Brass Bass" sname="Bass" transpose=-1  octave=-2 clef=bass
V:BC gstem=up stem=down name="Brass Chord" sname="ABCD-D" transpose=-1
V:BD gstem=up stem=down name="Brass Chord 2" sname="ABCD-B" transpose=-1
V:P gstem=up stem=down name="Piano" sname="Piano" transpose=0 octave=-1
I:MIDI=program 110
%%MIDI gracedivider 40
% %score {M BC BD BB}
% %MIDI program 109 #bagpipes
%%MIDI vol 100
[V:M] f | {g}B2{GdGe}B {gfg}f>e{g}c | {g}B>f{e}f {gef}e>{g}c{d}B | {g}A2{GdGe}A {gcd}c>{d}B{e}c | {g}A>{d}cf {gef}e>c{d}A | 
[V:M]   {g}B2{GdGe}B {gfg}f>e{g}c | {g}B>f{e}f {gef}e>{g}c{d}B | {g}A2{GdGe}A {g}c2{GdG}f | {gcd}c>B{G}B {gBd}B2 :]
[V:M] [: c<e | {gfg}f2a {fg}f>ef | {gfg}f>a{g}a {fg}f2a | A2{GdGe}A {g}c>e{A}e | {g}A>{d}ce {gef}e>c{e}A | 
[V:M]        |[1 {gfg}f2a {fg}f>ef | {gfg}f>a{g}a {fg}f2a | {g}A2{GdGe}A {g}c2{GdG}f | {gcd}c>B{G}B {gBd}B2 :]
[V:M]   [2{g}B2{GdGe}B {gfg}f>e{g}c | {g}B>f{e}f {gef}e>{g}c{d}B | {g}A2{GdGe}A {g}c2{GdG}f | {gcd}c>B{G}B {gBd}B2 |]
[V:M] [: f<{g}e | {gcd}c>B{G}B {gfg}f>e{g}c | {g}c2{GdGe}B {gfg}f>e{g}c | {g}A2{GdGe}A {gcd}c>{d}B{e}c | {g}A>{d}cf {gef}e>c{d}A | 
[V:M]           | {gcd}c>B{G}B {gfg}f>e{g}c | {g}c2{GdGe}B {gfg}f>e{g}c |  {g}A2{GdGe}A {g}c2{GdG}f | {gcd}c>B{G}B {gBd}B2 :|]
[V:M] [: c<e | {gfg}f>e{A}e {gfg}f>a{g}a | c>a{g}a e>a{g}a | {g}A2{GdGe}A {gcd}c>{d}B{e}c | {g}A>{d}cf {gef}e>c{d}A | 
[V:M]        |[1 {gfg}f>e{A}e {gfg}f>a{g}a | c>a{g}a e>a{g}a {g}A2{GdGe}A {g}c2{GdG}f | {gcd}c>B{G}B {gBd}B2 :|]
[V:M]        |[2 {gcd}c>B{G}B {gfg}f>e{g}c | {g}c2{GdGe}B {gfg}f>e{g}c |  {g}A2{GdGe}A {g}c2{GdG}f | {gcd}c>B{G}B {gBd}B2 |]

